X: 59
T:Galopede
% Nottingham Music Database
P:AAB
S:Eric Foxley
M:4/4
L:1/4
K:G
P:A
d/2c/2|"G"BB/2c/2 "D7"AA/2B/2|"G"GG GA/2B/2|"C"c/2B/2c/2d/2 e/2d/2c/2B/2|\
"Am"cA "D7"Ad/2c/2|
"G"BB/2c/2 "D/f+"AA/2B/2|"Em"GG "Em7/d"GA/2B/2|\
"Am/c"c/2B/2A/2G/2 "D7"F/2G/2A/2F/2|"G"GG G:|
P:B
d/2c/2|"G"Bg/2f/2 "C"ee/2d/2|"Am"d/2c/2B/2c/2 "D7"Ad/2c/2|\
"G"Bg/2f/2 "C"e/2d/2c/2B/2|
"Am"cA "D7"Ad/2c/2|"G"Bg/2f/2 "C"ee/2d/2|"Am"d/2c/2B/2c/2 "D7"Ad/2c/2|\
"G"B/2d/2c/2B/2 "D7"A/2c/2B/2A/2|
"G"GG "D7"GB/2c/2|"G"dd/2d/2 dg|"G"dd/2d/2 dg|"G"dd "C"e/2d/2c/2B/2|\
"Am"cA "D7"AB/2c/2|
"G"dd/2d/2 dg|"Em"dd/2d/2 dg|"Am"e/2d/2c/2B/2 "D7"d/2c/2B/2A/2|"G"GG G||<end>
<start>
